X:1
T:James Gibb editions
T:Est secretum - Ravanello
T:#
%%score { 1 | 2 } 3 { 4 | 5 } 6
L:1/8
Q:1/4=66
M:4/4
K:C
V:1 treble nm="Soprano I" snm="S"
V:2 treble 
V:3 treble nm="Alto I" snm="A"
V:4 treble nm="Soprano III" snm="S"
V:5 treble 
V:6 treble nm="Alto II" snm="A"
V:1
"^dolcissimo""^Est secretum, op.66/35""^Oreste Ravanello\n (1871-1938)"!pp! A6 c2 |!<(! (e8-!<)! | %2
w: Est se-|cre\-|
 e2 dc d4- | d2 c2 B4) | c8 |[M:4/4] z2!ppp! c4 e2 | d4"^," c2 f2- | f2 ee (d2 c2 | d8) | %9
w: ||tum,|est se-|cre- tum, Va\-|* le- ri- a\- *||
"^," e2 (ef) g2 e2 | f4"^," e2 (e2- | e2 dc) d4 | !fermata!e8 || (c2 e3) d c2 | B8 |"^," B8 | %16
w: ne, quod * ti- bi|vo- lo di\-|* * * ce-||An\- * ge- lum|De-|i,|
 (c2 e3) d c2 | f4 f4 | e2 dd g2 f2 | (fecd edef | d8) | e6 z2 | %22
w: an\- * ge- lum|De- i|ha- be- o a- ma-|to\- * * * * * * *||rem,|
 z2!f!"^movendo"[Q:1/4=72] c2 c2 cc | d4 d2 z2 | z2 B2 e2 ee | e4"^," e2 e2 | f2 e2 d2 c2 | %27
w: qui ni- mi- o|ze- lo,|qui ni- mi- o|ze- lo cu-|sto- dit cor- pus|
[Q:1/4=72][Q:1/4=72][Q:1/4=72][Q:1/4=72] (B3 c d4- | d2 cd B4) |"^," ^c6 c2 || %30
w: me\- * *||um, cu-|
"^molto adagio"[Q:1/4=60] ^c4 c4 | d4 f4 | e8 | !fermata!e8 |] %34
w: sto- dit|cor- pus|me-|um.|
V:2
!pp! A6 A2 |!<(! (c8-!<)! | c2 BA B2 A2 | ^G2 A4 G2) | A8 |[M:4/4] z2!ppp! A4 =G2 | %6
w: Est se-|cre\-|||tum,|est se-|
 B4"^," A2 (A2- | AB)cc B2 c2- | c2 BA B4 |"^," c2 c2 c2 c2 | c4"^," c4 | A6 A2 | !fermata!^G8 || %13
w: cre- tum, Va\-|* * le- ri- a\- *||ne, quod ti- bi|vo- lo|di- ce-||
 (A2 c3) B A2 | (A8 | ^G8) | A8 | (A2 d3) c B2 | B2 A2 G2 (AB) | c2 c4 c2 | (c2 BA B4) | c6 z2 | %22
w: An\- * ge- lum|De\-||i,|an\- * ge- lum|De- i ha- be\- *|o a- ma-|to\- * * *|rem,|
 z2!f! A2 A2 AA | A4 F2 z2 | z2 ^G2 G2 GG | A4"^," A2 A2 | A2 A2 A2 A2 | A6 BA | ^G2 A4 G2 | %29
w: qui ni- mi- o|ze- lo,|qui ni- mi- o|ze- lo cu-|sto- dit cor- pus|me\- * *||
"^," A6 A2 || A4 A4 | A6 d2 | (d4 ^c2 B2) | !fermata!^c8 |] %34
w: um, cu-|sto- dit|cor- pus|me\- * *|um.|
V:3
 z2!pp! A4 (A2- |!<(! A2 GF E3 F)!<)! | (G6 F2 | E8) | A,8 |[M:4/4]!ppp! A,6 C2 | G,4"^," A,2 D2- | %7
w: Est se\-||cre\- *||tum,|est se-|cre- tum, Va\-|
 D2 CC (G2 A2 | G8) |"^," C2 (CD) E2 C2 | A4"^," A4 | F6 F2 | !fermata!E8 || z8 | (D2 F3) E D2 | %15
w: * le- ri- a\- *||ne, quod * ti- bi|vo- lo|di- ce-|||An\- * ge- lum|
 E4"^," E4 | (A,2 C3) B, A,2 | D6 G2 | C2 FF E2 D2 |!<(! (A8!<)! |!>(! F4 G4)!>)! | C6 z2 | %22
w: De- i,|an\- * ge- lum|De- i|ha- be- o a- ma-|to\-||rem,|
 z2!f! F2 F2 FF | F4 D2 z2 | z2 E2 E2 EE | C4"^," C2 C2 | D2 C2 F2 E2 | (D3 E F4 | E8) | %29
w: qui ni- mi- o|ze- lo,|qui ni- mi- o|ze- lo cu-|sto- dit cor- pus|me\- * *||
"^," A,6 A2 || A4 G4 | F4 D4 | A8 | !fermata!A8 |] %34
w: um, cu-|sto- dit|cor- pus|me-|um.|
V:4
 z8 | z8 | z8 | z8 |!p! A6 c2 |[M:4/4] e8- | d4 z4 | z8 | z2 (Bc) d2 B2 | e3 d c2 c2 | c3 z z4 | %11
w: ||||Est se-|cre-|tum,||quod * ti- bi|vo- lo di- ce-|re:|
 z8 | !fermata!z8 || z8 | z8 | (B2 d3) c B2 | c8 | d6 z2 | z8 | z8 | z8 | z2!f!!<(! G2 c2 cc!<)! | %22
w: ||||An\- * ge- lum|De-|i,||||qui ni- mi- o|
 c4 c2 z2 | z2 d2 d2 ff | e4 B2 B2 | e4 e2 z2 | z4 z2 e2 | f3 e d2 d2 | (d2 cd B4) | %29
w: ze- lo,|qui ni- mi- o|ze- lo cu-|sto- dit,|cu-|sto- dit cor- pus|me\- * * *|
 A2 !>!A2 A2 A2 || A4 A4 | A8 | A8- | !fermata!A8 |] %34
w: um, cu- sto- dit|cor- pus|me-|um.||
V:5
 z8 | z8 | z8 | z8 |!p! A6 A2 |[M:4/4] c8 | B4 z4 | z8 | z2 G2 G2 G2 | E2 G2 G2 G2 | A3 z z4 | z8 | %12
w: ||||Est se-|cre-|tum,||quod ti- bi|vo- lo di- ce-|re:||
 !fermata!z8 || z8 | z8 | (^G2 B3) A G2 | A8 | F6 z2 | z8 | z8 | z8 | z2!f!!<(! E2 G2 GG!<)! | %22
w: |||An\- * ge- lum|De-|i,||||qui ni- mi- o|
 A4 A2 z2 | z2 F2 F2 AA | ^G4 G2 G2 | A4 A2 z2 | z4 z2 A2 | A3 A A2 (BA) | (^G2 A2 E4) | %29
w: ze- lo,|qui ni- mi- o|ze- lo cu-|sto- dit,|cu-|sto- dit cor- pus *|me\- * *|
 E2 !>!E2 E2 E2 || E4 E4 | F8 | E8- | !fermata!E8 |] %34
w: um, cu- sto- dit|cor- pus|me-|um.||
V:6
 z8 | z8 | z8 | z8 | z2!p! A4 (A2- |[M:4/4] A2 GF E3 F) | G4 z4 | z8 | z2 G,2 G,2 G,2 | %9
w: ||||Est se\-||tum,||quod ti- bi|
 C2 C2 C2 C2 | F,3 z z4 | z8 | !fermata!z8 || z8 | z8 | z8 | (A,2 C3) B, A,2 | D4 D2 z2 | z8 | z8 | %20
w: vo- lo di- ce-|re:||||||an\- * ge- lum|De- i,|||
 z8 | z2!f!!<(! C2 E2 EE!<)! | F4 F,2 z2 | z2 D2 D2 DD | E4 E2 E2 | C4 C2 z2 | z4 z2 A,2 | %27
w: |qui ni- mi- o|ze- lo,|qui ni- mi- o|ze- lo cu-|sto- dit,|cu-|
 D2 E2 F2 F2 | E8 |!<(! A,2 A,2 A,2 A,2 || A,4 A,4!<)! | D8 | A,8- | !fermata!A,8 |] %34
w: sto- dit cor- pus|me-|um, cu- sto- dit|cor- pus|me-|um.||

